docs/src/assets/oneRepo.svg

<svg viewBox="0 0 512 512" fill="none" xmlns="http://www.w3.org/2000/svg"><path fill-rule="evenodd" clip-rule="evenodd" d="m171.797 56-57.419 83.119h70.73v224.637h73.544c15.464 0 28 12.536 28 28s-12.536 28-28 28h-91.544c-20.987 0-38-17.013-38-38V195.119H80.065c-30.635 0-48.677-34.393-31.265-59.599L131.09 16.402A38 38 0 0 1 162.354 0h147.024c70.246 0 134.013 73.692 134.013 167.119 0 51.884-18.831 87.016-39.14 109.225a137.416 137.416 0 0 1-16.563 15.372l77.975 166.139c11.827 25.2-6.562 54.145-34.4 54.145H324.637c-15.464 0-28-12.536-28-28s12.536-28 28-28h78.294L313.77 266.026l27.46-10.844c.136-.061.433-.197.871-.413.977-.483 2.628-1.356 4.734-2.678 4.231-2.657 10.131-7.021 16.089-13.537 11.495-12.571 24.467-34.438 24.467-71.435C387.391 94.376 339.363 56 309.378 56H171.797Z" fill="currentcolor"/></svg>

<svg viewBox="0 0 512 512" fill="none" xmlns="http://www.w3.org/2000/svg">
<path fill-rule="evenodd" clip-rule="evenodd" d="M171.797 56L114.378 139.119H185.108V363.756H258.652C274.116 363.756 286.652 376.292 286.652 391.756C286.652 407.22 274.116 419.756 258.652 419.756H167.108C146.121 419.756 129.108 402.743 129.108 381.756V195.119H80.0655C49.4298 195.119 31.3877 160.726 48.8004 135.52L131.089 16.4016C138.184 6.13092 149.871 0 162.354 0L309.378 1.90735e-06C379.624 1.90735e-06 443.391 73.6915 443.391 167.119C443.391 219.003 424.56 254.135 404.251 276.344C398.604 282.519 392.939 287.596 387.688 291.716L465.663 457.855C477.49 483.055 459.101 512 431.263 512H324.637C309.173 512 296.637 499.464 296.637 484C296.637 468.536 309.173 456 324.637 456H402.931L313.77 266.026L341.23 255.182C341.366 255.121 341.663 254.985 342.101 254.769C343.078 254.286 344.729 253.413 346.835 252.091C351.066 249.434 356.966 245.07 362.924 238.554C374.419 225.983 387.391 204.116 387.391 167.119C387.391 94.3764 339.363 56 309.378 56H171.797Z" fill="currentcolor"/>
</svg>
